styles/1/Numix/22/places/default-user-home.svg

<?xml version="1.0" encoding="UTF-8" standalone="no"?>
<!-- Created with Inkscape (http://www.inkscape.org/) -->

<svg
   xmlns:dc="http://purl.org/dc/elements/1.1/"
   xmlns:cc="http://creativecommons.org/ns#"
   xmlns:rdf="http://www.w3.org/1999/02/22-rdf-syntax-ns#"
   xmlns:svg="http://www.w3.org/2000/svg"
   xmlns="http://www.w3.org/2000/svg"
   xmlns:sodipodi="http://sodipodi.sourceforge.net/DTD/sodipodi-0.dtd"
   xmlns:inkscape="http://www.inkscape.org/namespaces/inkscape"
   width="22"
   height="22"
   id="svg2"
   version="1.1"
   inkscape:version="0.91 r"
   sodipodi:docname="default-user-home.svg"
   inkscape:export-filename="/media/Data/Main/Visuals/Icons/Numix/Desktop/repos/numix-wiki/Gjorgi/Numix-folders/48/New/folder-144.png"
   inkscape:export-xdpi="270"
   inkscape:export-ydpi="270">
  <defs
     id="defs4" />
  <sodipodi:namedview
     id="base"
     pagecolor="#ffffff"
     bordercolor="#666666"
     borderopacity="1.0"
     inkscape:pageopacity="0.0"
     inkscape:pageshadow="2"
     inkscape:zoom="19.727273"
     inkscape:cx="14.344254"
     inkscape:cy="11.71146"
     inkscape:document-units="px"
     inkscape:current-layer="layer1"
     showgrid="true"
     inkscape:window-width="1280"
     inkscape:window-height="998"
     inkscape:window-x="0"
     inkscape:window-y="0"
     inkscape:window-maximized="1"
     showguides="true"
     inkscape:guide-bbox="true">
    <inkscape:grid
       type="xygrid"
       id="grid2985"
       empspacing="5"
       visible="true"
       enabled="true"
       snapvisiblegridlinesonly="true" />
  </sodipodi:namedview>
  <metadata
     id="metadata7">
    <rdf:RDF>
      <cc:Work
         rdf:about="">
        <dc:format>image/svg+xml</dc:format>
        <dc:type
           rdf:resource="http://purl.org/dc/dcmitype/StillImage" />
        <dc:title />
      </cc:Work>
    </rdf:RDF>
  </metadata>
  <g
     inkscape:label="Layer 1"
     inkscape:groupmode="layer"
     id="layer1"
     transform="translate(0,-1030.3622)">
    <path
       style="font-size:medium;font-style:normal;font-variant:normal;font-weight:normal;font-stretch:normal;text-indent:0;text-align:start;text-decoration:none;line-height:normal;letter-spacing:normal;word-spacing:normal;text-transform:none;direction:ltr;block-progression:tb;writing-mode:lr-tb;text-anchor:start;baseline-shift:baseline;color:#000000;fill:#c4905e;fill-opacity:1;fill-rule:nonzero;stroke:none;stroke-width:1.52408636;marker:none;visibility:visible;display:inline;overflow:visible;enable-background:accumulate;font-family:Sans;-inkscape-font-specification:Sans"
       d="M 1.625 3 C 1.2775698 3.063 0.99985296 3.3968 1 3.75 L 1 18.25 C 1.00617 18.641 1.3590206 18.9938 1.75 19 L 20.25 19 C 20.640979 18.99 20.99383 18.641 21 18.25 L 21 5.8125 C 20.9938 5.4215 20.640979 5.0062 20.25 5 L 13 5 L 13 3.75 C 12.9938 3.359 12.640979 3.0062 12.25 3 L 1.625 3 z M 14 7 C 15 7 15 7.446 15 8 L 15 11 C 17.288136 13 18 13 15 13 L 15 16 C 15 17 12 17 12 17 L 12 13 L 10 13 L 10 17 C 10 17 7 17 7 16 L 7 13 C 4 13 4.7966102 13 7 11 L 10 8 C 11 7 11 7 12 8 L 13 9 L 13 8 C 13 7.446 13 7 14 7 z "
       transform="translate(0,1030.3622)"
       id="path3912" />
  </g>
</svg>

<!-- Created with Inkscape (http://www.inkscape.org/) -->
<svg xmlns="http://www.w3.org/2000/svg" viewBox="0 0 22 22">
 <g transform="translate(0,-1030.3622)">
  <path d="m 1.625 3 c -0.347 0.063 -0.625 0.397 -0.625 0.75 l 0 14.5 c 0.006 0.391 0.359 0.744 0.75 0.75 l 18.5 0 c 0.391 -0.01 0.744 -0.359 0.75 -0.75 l 0 -12.438 c -0.006 -0.391 -0.359 -0.806 -0.75 -0.813 l -7.25 0 l 0 -1.25 c -0.006 -0.391 -0.359 -0.744 -0.75 -0.75 l -10.625 0 z m 12.375 4 c 1 0 1 0.446 1 1 l 0 3 c 2.288 2 3 2 0 2 l 0 3 c 0 1 -3 1 -3 1 l 0 -4 l -2 0 l 0 4 c 0 0 -3 0 -3 -1 l 0 -3 c -3 0 -2.203 0 0 -2 l 3 -3 c 1 -1 1 -1 2 0 l 1 1 l 0 -1 c 0 -0.554 0 -1 1 -1 z" transform="translate(0,1030.3622)" style="visibility:visible;fill:#c4905e;fill-opacity:1;stroke:none;display:inline;color:#000;fill-rule:nonzero"/>
 </g>
</svg>
